static/images/logo_bw_nl.svg

<?xml version="1.0" encoding="UTF-8"?>
<svg xmlns="http://www.w3.org/2000/svg" xmlns:xlink="http://www.w3.org/1999/xlink" width="184pt" height="22pt" viewBox="0 0 184 22" version="1.1">
<g>
<path fill="#FFFFFF" d="
M27.02,17.832v2.879h0.719c0.988,0,1.684,-0.082,1.684,-1.426c0,-1.355,-0.707,-1.453,-1.684,-1.453ZM27.02,13.953v2.879h0.434c0.992,0,1.695,-0.098,1.695,-1.453c0,-1.344,-0.703,-1.426,-1.695,-1.426ZM25.773,12.922h1.719c1.738,0,2.945,0.449,2.945,2.418c0,1.016,-0.406,1.598,-0.988,1.926c0.73,0.285,1.262,0.895,1.262,2.059c0,1.941,-1.195,2.418,-2.93,2.418h-2.008v-8.82
M32.188,21.742h1.246v-8.82h-1.246Z
M39.184,17.332c0,-2.766,-0.285,-3.484,-1.422,-3.484c-1.141,0,-1.414,0.719,-1.414,3.484c0,2.766,0.273,3.484,1.414,3.484c1.137,0,1.422,-0.719,1.422,-3.484ZM35.062,17.332c0,-3.648,0.867,-4.57,2.699,-4.57c1.883,0,2.711,0.879,2.711,4.57c0,3.664,-0.867,4.57,-2.711,4.57c-1.875,0,-2.699,-0.867,-2.699,-4.57
M41.734,17.902h3.145v-1.18h-3.145Z
M46.41,21.742h1.25v-8.82h-1.25Z
M49.625,12.922h1.438l2.781,7.027c-0.094,-0.719,-0.176,-1.559,-0.176,-2.348v-4.68h1.195v8.82h-1.441l-2.805,-7.055c0.105,0.719,0.203,1.574,0.203,2.375v4.68h-1.195Z
M56.488,17.332c0,-3.473,0.922,-4.57,3.215,-4.57c0.648,0,1.344,0.176,1.641,0.352v1.152c-0.324,-0.188,-0.949,-0.395,-1.547,-0.395c-1.465,0,-2.02,0.543,-2.02,3.461c0,2.891,0.391,3.484,1.668,3.484c0.395,0,0.719,-0.051,0.961,-0.121v-2.941h-1.301v-1.059h2.551v4.762c-0.258,0.16,-1.289,0.445,-2.199,0.445c-2.387,0,-2.969,-1.246,-2.969,-4.57
M63.5,12.922h4.121v1.059h-2.875v2.699h2.32v1.047h-2.32v2.957h2.875v1.059h-4.121Z
M69.262,12.922h1.438l2.781,7.027c-0.094,-0.719,-0.176,-1.559,-0.176,-2.348v-4.68h1.195v8.82h-1.438l-2.809,-7.055c0.105,0.719,0.203,1.574,0.203,2.375v4.68h-1.195Z
M76.465,21.742h1.246v-8.82h-1.246Z
M79.68,12.922h4.121v1.059h-2.875v2.699h2.32v1.047h-2.32v2.957h2.875v1.059h-4.121Z
M85.305,19.082v-6.16h1.25v6.215c0,1.301,0.445,1.68,1.355,1.68c0.91,0,1.355,-0.379,1.355,-1.68v-6.215h1.25v6.16c0,2.008,-0.84,2.82,-2.605,2.82c-1.789,0,-2.605,-0.785,-2.605,-2.82
M93.66,13.98v3.109h0.664c0.977,0,1.629,-0.207,1.629,-1.562c0,-1.344,-0.652,-1.547,-1.629,-1.547ZM92.41,12.922h2.035c1.629,0,2.797,0.613,2.797,2.605c0,1.398,-0.68,2.074,-1.535,2.387l1.875,3.828h-1.426l-1.656,-3.598h-0.84v3.598h-1.25v-8.82
M103.41,12.922h1.246l0.719,4.344c0.125,0.703,0.273,2.086,0.355,3.145c0.078,-1.059,0.23,-2.426,0.352,-3.145l0.73,-4.344h1.277l0.73,4.344c0.125,0.703,0.258,2.074,0.34,3.117c0.082,-1.043,0.246,-2.414,0.367,-3.117l0.719,-4.344h1.207l-1.684,8.82h-1.289l-0.715,-4.344c-0.109,-0.648,-0.258,-1.883,-0.34,-2.902c-0.082,1.02,-0.219,2.254,-0.328,2.902l-0.73,4.344h-1.277Z
M112.672,12.922h4.125v1.059h-2.875v2.699h2.316v1.047h-2.316v2.957h2.875v1.059h-4.125Z
M117.523,12.922h5.062v1.059h-1.914v7.762h-1.246v-7.762h-1.902Z
M123.629,12.922h4.125v1.059h-2.875v2.699h2.316v1.047h-2.316v2.957h2.875v1.059h-4.125Z
M129.395,12.922h1.434l2.781,7.027c-0.094,-0.719,-0.172,-1.559,-0.172,-2.348v-4.68h1.191v8.82h-1.438l-2.809,-7.055c0.105,0.719,0.203,1.574,0.203,2.375v4.68h-1.191Z
M141.383,17.332c0,-3.297,0.719,-4.57,2.859,-4.57c0.652,0,1.234,0.16,1.52,0.324v1.152c-0.324,-0.176,-0.895,-0.352,-1.438,-0.352c-1.289,0,-1.652,0.582,-1.652,3.445c0,2.891,0.391,3.461,1.652,3.461c0.555,0,1.195,-0.191,1.52,-0.383v1.152c-0.285,0.164,-0.965,0.34,-1.574,0.34c-2.32,0.016,-2.887,-1.273,-2.887,-4.57
M151.059,17.738h-2.688v4.004h-1.246v-8.82h1.246v3.758h2.688v-3.758h1.25v8.82h-1.25Z
M155.289,18.688h1.941l-0.367,-1.465c-0.191,-0.73,-0.434,-1.859,-0.586,-2.836c-0.16,0.977,-0.418,2.105,-0.605,2.836ZM155.629,12.922h1.289l2.348,8.82h-1.305l-0.516,-1.996h-2.398l-0.504,1.996h-1.262l2.348,-8.82
M161.488,13.98v3.516h0.73c0.977,0,1.508,-0.355,1.508,-1.766c0,-1.41,-0.531,-1.75,-1.508,-1.75ZM160.238,12.922h2.117c1.668,0,2.66,0.707,2.66,2.809c0,2.051,-1.031,2.809,-2.66,2.809h-0.867v3.203h-1.25v-8.82
M167.715,13.98v3.516h0.73c0.977,0,1.504,-0.355,1.504,-1.766c0,-1.41,-0.527,-1.75,-1.504,-1.75ZM166.465,12.922h2.113c1.672,0,2.66,0.707,2.66,2.809c0,2.051,-1.027,2.809,-2.66,2.809h-0.863v3.203h-1.25v-8.82
M172.688,12.922h4.125v1.059h-2.875v2.699h2.32v1.047h-2.32v2.957h2.875v1.059h-4.125Z
M178.453,12.922h1.438l2.781,7.027c-0.098,-0.719,-0.176,-1.559,-0.176,-2.348v-4.68h1.191v8.82h-1.438l-2.809,-7.055c0.109,0.719,0.203,1.574,0.203,2.375v4.68h-1.191Z
M25.773,0.48h3.988v1.059h-2.742v2.699h2.199v1.043h-2.199v4.016h-1.246Z
M31.633,6.246h1.938l-0.367,-1.465c-0.188,-0.734,-0.434,-1.859,-0.582,-2.836c-0.164,0.977,-0.422,2.102,-0.609,2.836ZM31.969,0.48h1.289l2.348,8.816h-1.301l-0.516,-1.992h-2.402l-0.5,1.992h-1.266l2.348,-8.816
M36.242,4.891c0,-3.297,0.719,-4.574,2.859,-4.574c0.652,0,1.238,0.164,1.52,0.328v1.152c-0.324,-0.176,-0.895,-0.352,-1.438,-0.352c-1.285,0,-1.652,0.582,-1.652,3.445c0,2.887,0.391,3.457,1.652,3.457c0.559,0,1.195,-0.191,1.52,-0.379v1.152c-0.285,0.164,-0.961,0.34,-1.57,0.34c-2.32,0.012,-2.891,-1.277,-2.891,-4.57
M41.918,6.637v-6.156h1.246v6.211c0,1.305,0.449,1.684,1.359,1.684c0.906,0,1.355,-0.379,1.355,-1.684v-6.211h1.25v6.156c0,2.008,-0.844,2.824,-2.605,2.824c-1.793,0,-2.605,-0.789,-2.605,-2.824
M49.023,0.48h1.25v7.758h2.738v1.059h-3.988Z
M52.578,0.48h5.059v1.059h-1.914v7.758h-1.246v-7.758h-1.898Z
M58.68,0.48h4.125v1.059h-2.875v2.699h2.316v1.043h-2.316v2.957h2.875v1.059h-4.125Z
M64.445,9.297h1.246v-8.816h-1.246Z
M66.734,0.48h5.059v1.059h-1.91v7.758h-1.246v-7.758h-1.902Z
M101.172,13.832c0.551,-0.004,1.07,0.176,1.309,0.363v-1.121c-0.238,-0.148,-0.824,-0.312,-1.418,-0.312c-1.656,0,-2.566,0.941,-2.566,2.309c0,1.137,0.484,1.684,1.262,2.355l0.707,0.613c0.586,0.488,0.949,0.867,0.949,1.602c0,0.855,-0.566,1.195,-1.418,1.195c-0.641,0,-1.18,-0.176,-1.484,-0.391v1.145c0.27,0.156,0.836,0.316,1.598,0.316c1.652,-0.004,2.562,-0.945,2.566,-2.309c0,-1.137,-0.484,-1.684,-1.262,-2.355l-0.707,-0.613c-0.59,-0.504,-0.953,-0.867,-0.949,-1.598c0,-0.863,0.562,-1.199,1.414,-1.199
M138.742,13.832c0.555,-0.004,1.07,0.176,1.312,0.363v-1.121c-0.242,-0.148,-0.824,-0.312,-1.418,-0.312c-1.656,0,-2.57,0.941,-2.57,2.309c0,1.137,0.484,1.684,1.258,2.355l0.711,0.613c0.586,0.488,0.949,0.867,0.949,1.602c0,0.855,-0.562,1.195,-1.418,1.195c-0.641,0,-1.176,-0.176,-1.488,-0.391v1.145c0.273,0.156,0.84,0.316,1.602,0.316c1.652,-0.004,2.562,-0.945,2.566,-2.309c0,-1.137,-0.484,-1.684,-1.262,-2.355l-0.707,-0.613c-0.59,-0.504,-0.953,-0.867,-0.953,-1.598c0.004,-0.863,0.566,-1.199,1.418,-1.199
M10.891,8.539c-1.422,0,-2.574,1.152,-2.574,2.57c0,1.422,1.152,2.574,2.574,2.574c1.418,0,2.57,-1.152,2.57,-2.574c0,-1.418,-1.152,-2.57,-2.57,-2.57ZM12.215,11.109c0,0.734,-0.594,1.324,-1.324,1.324c-0.734,0,-1.324,-0.59,-1.324,-1.324c0,-0.73,0.59,-1.324,1.324,-1.324c0.73,0,1.324,0.594,1.324,1.324
M16.27,1.641c-1.418,0,-2.57,1.152,-2.57,2.57c0,1.422,1.152,2.574,2.57,2.574c1.422,0,2.574,-1.152,2.574,-2.574c0,-1.418,-1.152,-2.57,-2.574,-2.57ZM17.598,4.211c0,0.734,-0.594,1.328,-1.328,1.328c-0.73,0,-1.324,-0.594,-1.324,-1.328c0,-0.73,0.594,-1.324,1.324,-1.324c0.734,0,1.328,0.594,1.328,1.324
M10.891,1.727c0.289,0,0.574,0.02,0.855,0.043l0.113,-1.238c-0.32,-0.031,-0.641,-0.051,-0.969,-0.051c-5.871,0,-10.629,4.758,-10.629,10.629c0,5.871,4.758,10.633,10.629,10.633c5.871,0,10.629,-4.762,10.629,-10.633c0,-1.23,-0.219,-2.406,-0.605,-3.504l-1.176,0.41c0.34,0.973,0.535,2.008,0.535,3.094c0,5.184,-4.203,9.383,-9.383,9.383c-5.184,0,-9.383,-4.199,-9.383,-9.383c0,-5.18,4.199,-9.383,9.383,-9.383
M10.891,4.223c0.211,0,0.418,0.012,0.629,0.031l0.113,-1.242c-0.246,-0.02,-0.492,-0.035,-0.742,-0.035c-4.492,0,-8.137,3.641,-8.137,8.133c0,4.492,3.645,8.137,8.137,8.137c4.492,0,8.137,-3.645,8.137,-8.137c0,-0.941,-0.172,-1.84,-0.465,-2.684l-1.176,0.414c0.25,0.711,0.391,1.473,0.391,2.27c0,3.805,-3.082,6.891,-6.887,6.891c-3.805,0,-6.891,-3.086,-6.891,-6.891c0,-3.805,3.086,-6.887,6.891,-6.887
"/>
</g>
</svg>

<?xml version="1.0" encoding="UTF-8"?>
<svg xmlns="http://www.w3.org/2000/svg" xmlns:xlink="http://www.w3.org/1999/xlink" width="184pt" height="22pt" viewBox="0 0 184 22" version="1.1">
<g id="surface1">
<path fill="#FFFFFF" d="M27.02,17.832L27.02,20.711L27.738,20.711C28.727,20.711,29.422,20.629,29.422,19.285C29.422,17.93,28.715,17.832,27.738,17.832Z M27.02,13.953L27.02,16.832L27.453,16.832C28.445,16.832,29.148,16.734,29.148,15.379C29.148,14.035,28.445,13.953,27.453,13.953Z M25.773,12.922L27.492,12.922C29.23,12.922,30.438,13.371,30.438,15.34C30.438,16.355,30.031,16.938,29.449,17.266C30.18,17.551,30.711,18.16,30.711,19.324C30.711,21.266,29.516,21.742,27.781,21.742L25.773,21.742L25.773,12.922"/>
<path fill="#FFFFFF" d="M32.188,21.742L33.434,21.742L33.434,12.922L32.188,12.922Z M32.188,21.742"/>
<path fill="#FFFFFF" d="M39.184,17.332C39.184,14.566,38.898,13.848,37.762,13.848C36.621,13.848,36.348,14.566,36.348,17.332C36.348,20.098,36.621,20.816,37.762,20.816C38.898,20.816,39.184,20.098,39.184,17.332Z M35.062,17.332C35.062,13.684,35.93,12.762,37.762,12.762C39.645,12.762,40.473,13.641,40.473,17.332C40.473,20.996,39.605,21.902,37.762,21.902C35.887,21.902,35.062,21.035,35.062,17.332"/>
<path fill="#FFFFFF" d="M41.734,17.902L44.879,17.902L44.879,16.723L41.734,16.723Z M41.734,17.902"/>
<path fill="#FFFFFF" d="M46.41,21.742L47.66,21.742L47.66,12.922L46.41,12.922Z M46.41,21.742"/>
<path fill="#FFFFFF" d="M49.625,12.922L51.062,12.922L53.844,19.949C53.75,19.23,53.668,18.391,53.668,17.602L53.668,12.922L54.863,12.922L54.863,21.742L53.422,21.742L50.617,14.688C50.723,15.406,50.82,16.262,50.82,17.062L50.82,21.742L49.625,21.742L49.625,12.922"/>
<path fill="#FFFFFF" d="M56.488,17.332C56.488,13.859,57.41,12.762,59.703,12.762C60.352,12.762,61.047,12.938,61.344,13.113L61.344,14.266C61.02,14.078,60.395,13.871,59.797,13.871C58.332,13.871,57.777,14.414,57.777,17.332C57.777,20.223,58.168,20.816,59.445,20.816C59.84,20.816,60.164,20.766,60.406,20.695L60.406,17.754L59.105,17.754L59.105,16.695L61.656,16.695L61.656,21.457C61.398,21.617,60.367,21.902,59.457,21.902C57.07,21.902,56.488,20.656,56.488,17.332"/>
<path fill="#FFFFFF" d="M63.5,12.922L67.621,12.922L67.621,13.98L64.746,13.98L64.746,16.68L67.066,16.68L67.066,17.727L64.746,17.727L64.746,20.684L67.621,20.684L67.621,21.742L63.5,21.742L63.5,12.922"/>
<path fill="#FFFFFF" d="M69.262,12.922L70.699,12.922L73.48,19.949C73.387,19.23,73.305,18.391,73.305,17.602L73.305,12.922L74.5,12.922L74.5,21.742L73.062,21.742L70.254,14.688C70.359,15.406,70.457,16.262,70.457,17.062L70.457,21.742L69.262,21.742L69.262,12.922"/>
<path fill="#FFFFFF" d="M76.465,21.742L77.711,21.742L77.711,12.922L76.465,12.922Z M76.465,21.742"/>
<path fill="#FFFFFF" d="M79.68,12.922L83.801,12.922L83.801,13.98L80.926,13.98L80.926,16.68L83.246,16.68L83.246,17.727L80.926,17.727L80.926,20.684L83.801,20.684L83.801,21.742L79.68,21.742L79.68,12.922"/>
<path fill="#FFFFFF" d="M85.305,19.082L85.305,12.922L86.555,12.922L86.555,19.137C86.555,20.438,87,20.816,87.91,20.816C88.82,20.816,89.266,20.438,89.266,19.137L89.266,12.922L90.516,12.922L90.516,19.082C90.516,21.09,89.676,21.902,87.91,21.902C86.121,21.902,85.305,21.117,85.305,19.082"/>
<path fill="#FFFFFF" d="M93.66,13.98L93.66,17.09L94.324,17.09C95.301,17.09,95.953,16.883,95.953,15.527C95.953,14.184,95.301,13.98,94.324,13.98Z M92.41,12.922L94.445,12.922C96.074,12.922,97.242,13.535,97.242,15.527C97.242,16.926,96.562,17.602,95.707,17.914L97.582,21.742L96.156,21.742L94.5,18.145L93.66,18.145L93.66,21.742L92.41,21.742L92.41,12.922"/>
<path fill="#FFFFFF" d="M103.41,12.922L104.656,12.922L105.375,17.266C105.5,17.969,105.648,19.352,105.73,20.41C105.809,19.352,105.961,17.984,106.082,17.266L106.812,12.922L108.09,12.922L108.82,17.266C108.945,17.969,109.078,19.34,109.16,20.383C109.242,19.34,109.406,17.969,109.527,17.266L110.246,12.922L111.453,12.922L109.77,21.742L108.48,21.742L107.766,17.398C107.656,16.75,107.508,15.516,107.426,14.496C107.344,15.516,107.207,16.75,107.098,17.398L106.367,21.742L105.09,21.742L103.41,12.922"/>
<path fill="#FFFFFF" d="M112.672,12.922L116.797,12.922L116.797,13.98L113.922,13.98L113.922,16.68L116.238,16.68L116.238,17.727L113.922,17.727L113.922,20.684L116.797,20.684L116.797,21.742L112.672,21.742L112.672,12.922"/>
<path fill="#FFFFFF" d="M117.523,12.922L122.586,12.922L122.586,13.98L120.672,13.98L120.672,21.742L119.426,21.742L119.426,13.98L117.523,13.98L117.523,12.922"/>
<path fill="#FFFFFF" d="M123.629,12.922L127.754,12.922L127.754,13.98L124.879,13.98L124.879,16.68L127.195,16.68L127.195,17.727L124.879,17.727L124.879,20.684L127.754,20.684L127.754,21.742L123.629,21.742L123.629,12.922"/>
<path fill="#FFFFFF" d="M129.395,12.922L130.828,12.922L133.609,19.949C133.516,19.23,133.438,18.391,133.438,17.602L133.438,12.922L134.629,12.922L134.629,21.742L133.191,21.742L130.383,14.688C130.488,15.406,130.586,16.262,130.586,17.062L130.586,21.742L129.395,21.742L129.395,12.922"/>
<path fill="#FFFFFF" d="M141.383,17.332C141.383,14.035,142.102,12.762,144.242,12.762C144.895,12.762,145.477,12.922,145.762,13.086L145.762,14.238C145.438,14.062,144.867,13.887,144.324,13.887C143.035,13.887,142.672,14.469,142.672,17.332C142.672,20.223,143.062,20.793,144.324,20.793C144.879,20.793,145.52,20.602,145.844,20.41L145.844,21.562C145.559,21.727,144.879,21.902,144.27,21.902C141.949,21.918,141.383,20.629,141.383,17.332"/>
<path fill="#FFFFFF" d="M151.059,17.738L148.371,17.738L148.371,21.742L147.125,21.742L147.125,12.922L148.371,12.922L148.371,16.68L151.059,16.68L151.059,12.922L152.309,12.922L152.309,21.742L151.059,21.742L151.059,17.738"/>
<path fill="#FFFFFF" d="M155.289,18.688L157.23,18.688L156.863,17.223C156.672,16.492,156.43,15.363,156.277,14.387C156.117,15.363,155.859,16.492,155.672,17.223Z M155.629,12.922L156.918,12.922L159.266,21.742L157.961,21.742L157.445,19.746L155.047,19.746L154.543,21.742L153.281,21.742L155.629,12.922"/>
<path fill="#FFFFFF" d="M161.488,13.98L161.488,17.496L162.219,17.496C163.195,17.496,163.727,17.141,163.727,15.73C163.727,14.32,163.195,13.98,162.219,13.98Z M160.238,12.922L162.355,12.922C164.023,12.922,165.016,13.629,165.016,15.73C165.016,17.781,163.984,18.539,162.355,18.539L161.488,18.539L161.488,21.742L160.238,21.742L160.238,12.922"/>
<path fill="#FFFFFF" d="M167.715,13.98L167.715,17.496L168.445,17.496C169.422,17.496,169.949,17.141,169.949,15.73C169.949,14.32,169.422,13.98,168.445,13.98Z M166.465,12.922L168.578,12.922C170.25,12.922,171.238,13.629,171.238,15.73C171.238,17.781,170.211,18.539,168.578,18.539L167.715,18.539L167.715,21.742L166.465,21.742L166.465,12.922"/>
<path fill="#FFFFFF" d="M172.688,12.922L176.812,12.922L176.812,13.98L173.938,13.98L173.938,16.68L176.258,16.68L176.258,17.727L173.938,17.727L173.938,20.684L176.812,20.684L176.812,21.742L172.688,21.742L172.688,12.922"/>
<path fill="#FFFFFF" d="M178.453,12.922L179.891,12.922L182.672,19.949C182.574,19.23,182.496,18.391,182.496,17.602L182.496,12.922L183.688,12.922L183.688,21.742L182.25,21.742L179.441,14.688C179.551,15.406,179.645,16.262,179.645,17.062L179.645,21.742L178.453,21.742L178.453,12.922"/>
<path fill="#FFFFFF" d="M25.773,0.48L29.762,0.48L29.762,1.539L27.02,1.539L27.02,4.238L29.219,4.238L29.219,5.281L27.02,5.281L27.02,9.297L25.773,9.297L25.773,0.48"/>
<path fill="#FFFFFF" d="M31.633,6.246L33.57,6.246L33.203,4.781C33.016,4.047,32.77,2.922,32.621,1.945C32.457,2.922,32.199,4.047,32.012,4.781Z M31.969,0.48L33.258,0.48L35.605,9.297L34.305,9.297L33.789,7.305L31.387,7.305L30.887,9.297L29.621,9.297L31.969,0.48"/>
<path fill="#FFFFFF" d="M36.242,4.891C36.242,1.594,36.961,0.316,39.102,0.316C39.754,0.316,40.34,0.48,40.621,0.645L40.621,1.797C40.297,1.621,39.727,1.445,39.184,1.445C37.898,1.445,37.531,2.027,37.531,4.891C37.531,7.777,37.922,8.348,39.184,8.348C39.742,8.348,40.379,8.156,40.703,7.969L40.703,9.121C40.418,9.285,39.742,9.461,39.133,9.461C36.812,9.473,36.242,8.184,36.242,4.891"/>
<path fill="#FFFFFF" d="M41.918,6.637L41.918,0.48L43.164,0.48L43.164,6.691C43.164,7.996,43.613,8.375,44.523,8.375C45.43,8.375,45.879,7.996,45.879,6.691L45.879,0.48L47.129,0.48L47.129,6.637C47.129,8.645,46.285,9.461,44.523,9.461C42.73,9.461,41.918,8.672,41.918,6.637"/>
<path fill="#FFFFFF" d="M49.023,0.48L50.273,0.48L50.273,8.238L53.012,8.238L53.012,9.297L49.023,9.297L49.023,0.48"/>
<path fill="#FFFFFF" d="M52.578,0.48L57.637,0.48L57.637,1.539L55.723,1.539L55.723,9.297L54.477,9.297L54.477,1.539L52.578,1.539L52.578,0.48"/>
<path fill="#FFFFFF" d="M58.68,0.48L62.805,0.48L62.805,1.539L59.93,1.539L59.93,4.238L62.246,4.238L62.246,5.281L59.93,5.281L59.93,8.238L62.805,8.238L62.805,9.297L58.68,9.297L58.68,0.48"/>
<path fill="#FFFFFF" d="M64.445,9.297L65.691,9.297L65.691,0.48L64.445,0.48Z M64.445,9.297"/>
<path fill="#FFFFFF" d="M66.734,0.48L71.793,0.48L71.793,1.539L69.883,1.539L69.883,9.297L68.637,9.297L68.637,1.539L66.734,1.539L66.734,0.48"/>
<path fill="#FFFFFF" d="M101.172,13.832C101.723,13.828,102.242,14.008,102.48,14.195L102.48,13.074C102.242,12.926,101.656,12.762,101.062,12.762C99.406,12.762,98.496,13.703,98.496,15.07C98.496,16.207,98.98,16.754,99.758,17.426L100.465,18.039C101.051,18.527,101.414,18.906,101.414,19.641C101.414,20.496,100.848,20.836,99.996,20.836C99.355,20.836,98.816,20.66,98.512,20.445L98.512,21.59C98.781,21.746,99.348,21.906,100.109,21.906C101.762,21.902,102.672,20.961,102.676,19.598C102.676,18.461,102.191,17.914,101.414,17.242L100.707,16.629C100.117,16.125,99.754,15.762,99.758,15.031C99.758,14.168,100.32,13.832,101.172,13.832"/>
<path fill="#FFFFFF" d="M138.742,13.832C139.297,13.828,139.812,14.008,140.055,14.195L140.055,13.074C139.812,12.926,139.23,12.762,138.637,12.762C136.98,12.762,136.066,13.703,136.066,15.07C136.066,16.207,136.551,16.754,137.324,17.426L138.035,18.039C138.621,18.527,138.984,18.906,138.984,19.641C138.984,20.496,138.422,20.836,137.566,20.836C136.926,20.836,136.391,20.66,136.078,20.445L136.078,21.59C136.352,21.746,136.918,21.906,137.68,21.906C139.332,21.902,140.242,20.961,140.246,19.598C140.246,18.461,139.762,17.914,138.984,17.242L138.277,16.629C137.688,16.125,137.324,15.762,137.324,15.031C137.328,14.168,137.891,13.832,138.742,13.832"/>
<path fill="#FFFFFF" d="M10.891,8.539C9.469,8.539,8.316,9.691,8.316,11.109C8.316,12.531,9.469,13.684,10.891,13.684C12.309,13.684,13.461,12.531,13.461,11.109C13.461,9.691,12.309,8.539,10.891,8.539Z M12.215,11.109C12.215,11.844,11.621,12.434,10.891,12.434C10.156,12.434,9.566,11.844,9.566,11.109C9.566,10.379,10.156,9.785,10.891,9.785C11.621,9.785,12.215,10.379,12.215,11.109"/>
<path fill="#FFFFFF" d="M16.27,1.641C14.852,1.641,13.699,2.793,13.699,4.211C13.699,5.633,14.852,6.785,16.27,6.785C17.691,6.785,18.844,5.633,18.844,4.211C18.844,2.793,17.691,1.641,16.27,1.641Z M17.598,4.211C17.598,4.945,17.004,5.539,16.27,5.539C15.539,5.539,14.945,4.945,14.945,4.211C14.945,3.48,15.539,2.887,16.27,2.887C17.004,2.887,17.598,3.48,17.598,4.211"/>
<path fill="#FFFFFF" d="M10.891,1.727C11.18,1.727,11.465,1.746,11.746,1.77L11.859,0.531C11.539,0.5,11.219,0.48,10.891,0.48C5.02,0.48,0.262,5.238,0.262,11.109C0.262,16.98,5.02,21.742,10.891,21.742C16.762,21.742,21.52,16.98,21.52,11.109C21.52,9.879,21.301,8.703,20.914,7.605L19.738,8.016C20.078,8.988,20.273,10.023,20.273,11.109C20.273,16.293,16.07,20.492,10.891,20.492C5.707,20.492,1.508,16.293,1.508,11.109C1.508,5.93,5.707,1.727,10.891,1.727"/>
<path fill="#FFFFFF" d="M10.891,4.223C11.102,4.223,11.309,4.234,11.52,4.254L11.633,3.012C11.387,2.992,11.141,2.977,10.891,2.977C6.398,2.977,2.754,6.617,2.754,11.109C2.754,15.602,6.398,19.246,10.891,19.246C15.383,19.246,19.027,15.602,19.027,11.109C19.027,10.168,18.855,9.27,18.562,8.426L17.387,8.84C17.637,9.551,17.777,10.312,17.777,11.109C17.777,14.914,14.695,18,10.891,18C7.086,18,4,14.914,4,11.109C4,7.305,7.086,4.223,10.891,4.223"/>
</g>
</svg>
